logos/bcom/bcom-logo-black.svg

<svg width="500" height="70" xmlns="http://www.w3.org/2000/svg" xmlns:sketch="http://www.bohemiancoding.com/sketch/ns"><title>logo-black</title><desc>Created with Sketch.</desc><g sketch:type="MSLayerGroup" fill="none"><path d="M428.488 18.96h13.903l-.899 6.668h.195c2.448-3.334 7.721-7.809 14.768-7.809 6.564.002 11.586 2.905 13.299 8.901 4.219-6.299 9.098-8.811 16.051-8.809 12.742 0 15.338 9.674 13.736 21.664l-3.897 29.391h-14.478l3.842-28.969c.605-4.572-.518-8.539-5.25-8.539-6.658 0-9.446 5.139-10.26 11.236l-3.49 26.272h-14.479l3.485-26.326c.494-3.66 1.673-11.184-4.985-11.184-7.529 0-9.517 6.357-10.373 12.76l-3.285 24.75h-14.482l6.599-50.006" sketch:type="MSShapeGroup"/><path d="M397.48 17.931c14.479.002 24.705 10.163 22.602 25.916-2.107 15.748-15.045 25.912-29.529 25.91-14.479 0-24.705-10.166-22.6-25.916 2.104-15.752 15.045-25.91 29.527-25.91zm-5.132 38.41c7.24 0 12.263-5.08 13.25-12.494.996-7.422-2.672-12.502-9.914-12.502-7.241 0-12.262 5.078-13.25 12.496-.994 7.42 2.671 12.5 9.914 12.5z" sketch:type="MSShapeGroup"/><path d="M358.506 35.101c-1.162-2.135-3.649-3.759-6.645-3.761-7.24 0-12.261 5.079-13.252 12.499-.994 7.416 2.676 12.498 9.916 12.498 3.186 0 5.731-1.727 7.645-3.76l8.148 10.572c-5.191 4.877-12.082 6.606-17.584 6.604-14.482 0-24.709-10.168-22.605-25.916 2.105-15.752 15.047-25.911 29.527-25.909 5.504 0 11.932 1.729 15.819 6.604l-10.969 10.569" sketch:type="MSShapeGroup"/><path d="M316.728 53.253c1.76 2.178 2.305 5.642 1.209 8.254-1.091 2.812-3.722 5.424-6.57 6.396-2.408 1.09-5.59.653-7.89-.541-2.516-1.738-3.499-4.342-3.278-7.383.102-3.683 3.065-6.943 6.241-8.462 3.396-1.409 7.775-.862 10.288 1.736" sketch:type="MSShapeGroup"/><path d="M253.344 19.356l13.904-.216-.898 6.488h.195c2.447-3.334 7.721-7.817 14.765-7.817 14.674.002 16.018 10.217 14.256 23.428l-3.64 27.262-14.481.012 3.231-24.178c.763-5.69 1.642-13.002-5.791-13.005-7.532 0-9.516 6.423-10.373 12.823l-3.284 24.813h-14.481l6.597-49.61" sketch:type="MSShapeGroup"/><path d="M222.333 17.916c14.481.001 24.709 10.161 22.603 25.913-2.103 15.75-15.045 25.914-29.526 25.912-14.48-.002-24.708-10.168-22.603-25.914 2.105-15.754 15.045-25.914 29.526-25.911zm-5.128 38.407c7.238.002 12.261-5.078 13.252-12.494.99-7.42-2.673-12.5-9.915-12.5-7.241 0-12.265 5.078-13.254 12.498-.992 7.416 2.674 12.496 9.917 12.496z" sketch:type="MSShapeGroup"/><path d="M191.297 31.327l-12.742-.002-2.202 16.461c-.704 5.285-.641 9.143 5.634 9.145 1.545 0 4.662-.202 6.077-1.422l-1.696 12.703c-3.348 1.223-6.959 1.525-10.34 1.525-9.652 0-16.527-4.238-15.089-15.008l3.134-23.545h-9.266l1.628-12.224h9.268l3.202-18.96 14.481.044-3.203 19.064 12.741.012-1.627 12.207" sketch:type="MSShapeGroup"/><path d="M143.303 33.66c-1.758-2.745-4.368-4.168-7.843-4.168-2.413 0-5.459 1.118-5.852 4.062-.978 7.32 24.275 1.123 21.762 19.92-1.683 12.603-13.756 16.261-23.794 16.259-6.564 0-13.574-1.728-17.541-6.713l10.154-10.257c2.241 3.455 5.171 5.384 9.514 5.386 3.281 0 6.685-.92 7.039-3.558 1.06-7.926-24.259-1.221-21.749-20.02 1.547-11.582 12.071-16.666 21.92-16.666 6.177.002 12.814 1.629 16.506 6.509l-10.116 9.246" sketch:type="MSShapeGroup"/><path d="M88.17 17.903c14.481 0 24.706 10.164 22.602 25.914-2.103 15.748-15.043 25.914-29.526 25.912-14.479 0-24.707-10.168-22.603-25.916 2.105-15.753 15.047-25.912 29.527-25.91zm-5.13 38.408c7.239.002 12.263-5.078 13.254-12.494.991-7.419-2.675-12.5-9.915-12.5-7.242-.002-12.265 5.078-13.255 12.496-.99 7.416 2.675 12.498 9.916 12.498z" sketch:type="MSShapeGroup"/><path d="M9.224.302l14.481-.057-3.295 24.272h.193c3.92-4.446 9.749-6.563 15.734-6.561 13.323 0 19.748 12.574 17.917 26.289-1.995 14.941-12.581 25.645-26.481 25.643-6.565 0-11.608-4.254-13.351-7.588h-.194l-.868 6.666h-13.322l9.186-68.664zm17.348 56.008c7.241 0 12.264-5.083 13.254-12.499.993-7.419-2.674-12.5-9.916-12.5-7.238 0-12.259 5.079-13.253 12.499-.99 7.416 2.677 12.498 9.915 12.5z" sketch:type="MSShapeGroup"/></g></svg>

<?xml version="1.0" encoding="UTF-8"?>
<svg width="500px" height="70px" viewBox="0 0 500 70" version="1.1" xmlns="http://www.w3.org/2000/svg" xmlns:xlink="http://www.w3.org/1999/xlink">
    <!-- Generator: Sketch 42 (36781) - http://www.bohemiancoding.com/sketch -->
    <title>bcom-logo-black</title>
    <desc>Created with Sketch.</desc>
    <defs></defs>
    <g id="logo" stroke="none" stroke-width="1" fill="none" fill-rule="evenodd">
        <g id="bcom-logo-black">
            <g>
                <path d="M428.488,18.96 L442.391,18.96 L441.492,25.628 L441.687,25.628 C444.135,22.294 449.408,17.819 456.455,17.819 C463.019,17.821 468.041,20.724 469.754,26.72 C473.973,20.421 478.852,17.909 485.805,17.911 C498.547,17.911 501.143,27.585 499.541,39.575 L495.644,68.966 L481.166,68.966 L485.008,39.997 C485.613,35.425 484.49,31.458 479.758,31.458 C473.1,31.458 470.312,36.597 469.498,42.694 L466.008,68.966 L451.529,68.966 L455.014,42.64 C455.508,38.98 456.687,31.456 450.029,31.456 C442.5,31.456 440.512,37.813 439.656,44.216 L436.371,68.966 L421.889,68.966 L428.488,18.96" id="Fill-9" fill="#000000"></path>
                <path d="M397.48,17.931 C411.959,17.933 422.185,28.094 420.082,43.847 C417.975,59.595 405.037,69.759 390.553,69.757 C376.074,69.757 365.848,59.591 367.953,43.841 C370.057,28.089 382.998,17.931 397.48,17.931 L397.48,17.931 Z M392.348,56.341 C399.588,56.341 404.611,51.261 405.598,43.847 C406.594,36.425 402.926,31.345 395.684,31.345 C388.443,31.345 383.422,36.423 382.434,43.841 C381.44,51.261 385.105,56.341 392.348,56.341 L392.348,56.341 Z" id="Fill-8" fill="#000000"></path>
                <path d="M358.506,35.101 C357.344,32.966 354.857,31.342 351.861,31.34 C344.621,31.34 339.6,36.419 338.609,43.839 C337.615,51.255 341.285,56.337 348.525,56.337 C351.711,56.337 354.256,54.61 356.17,52.577 L364.318,63.149 C359.127,68.026 352.236,69.755 346.734,69.753 C332.252,69.753 322.025,59.585 324.129,43.837 C326.234,28.085 339.176,17.926 353.656,17.928 C359.16,17.928 365.588,19.657 369.475,24.532 L358.506,35.101" id="Fill-7" fill="#000000"></path>
                <path d="M316.728,53.253 C318.488,55.431 319.033,58.895 317.937,61.507 C316.846,64.319 314.215,66.931 311.367,67.903 C308.959,68.993 305.777,68.556 303.477,67.362 C300.961,65.624 299.978,63.02 300.199,59.979 C300.301,56.296 303.264,53.036 306.44,51.517 C309.836,50.108 314.215,50.655 316.728,53.253" id="Fill-10" fill="#9B1518"></path>
                <path d="M253.344,19.356 L267.248,19.14 L266.35,25.628 L266.545,25.628 C268.992,22.294 274.266,17.811 281.31,17.811 C295.984,17.813 297.328,28.028 295.566,41.239 L291.926,68.501 L277.445,68.513 L280.676,44.335 C281.439,38.645 282.318,31.333 274.885,31.33 C267.353,31.33 265.369,37.753 264.512,44.153 L261.228,68.966 L246.747,68.966 L253.344,19.356" id="Fill-6" fill="#000000"></path>
                <path d="M222.333,17.916 C236.814,17.917 247.042,28.077 244.936,43.829 C242.833,59.579 229.891,69.743 215.41,69.741 C200.93,69.739 190.702,59.573 192.807,43.827 C194.912,28.073 207.852,17.913 222.333,17.916 L222.333,17.916 Z M217.205,56.323 C224.443,56.325 229.466,51.245 230.457,43.829 C231.447,36.409 227.784,31.329 220.542,31.329 C213.301,31.329 208.277,36.407 207.288,43.827 C206.296,51.243 209.962,56.323 217.205,56.323 L217.205,56.323 Z" id="Fill-5" fill="#000000"></path>
                <path d="M191.297,31.327 L178.555,31.325 L176.353,47.786 C175.649,53.071 175.712,56.929 181.987,56.931 C183.532,56.931 186.649,56.729 188.064,55.509 L186.368,68.212 C183.02,69.435 179.409,69.737 176.028,69.737 C166.376,69.737 159.501,65.499 160.939,54.729 L164.073,31.184 L154.807,31.184 L156.435,18.96 L165.703,18.96 L168.905,0 L183.386,0.044 L180.183,19.108 L192.924,19.12 L191.297,31.327" id="Fill-4" fill="#000000"></path>
                <path d="M143.303,33.66 C141.545,30.915 138.935,29.492 135.46,29.492 C133.047,29.492 130.001,30.61 129.608,33.554 C128.63,40.874 153.883,34.677 151.37,53.474 C149.687,66.077 137.614,69.735 127.576,69.733 C121.012,69.733 114.002,68.005 110.035,63.02 L120.189,52.763 C122.43,56.218 125.36,58.147 129.703,58.149 C132.984,58.149 136.388,57.229 136.742,54.591 C137.802,46.665 112.483,53.37 114.993,34.571 C116.54,22.989 127.064,17.905 136.913,17.905 C143.09,17.907 149.727,19.534 153.419,24.414 L143.303,33.66" id="Fill-3" fill="#000000"></path>
                <path d="M88.17,17.903 C102.651,17.903 112.876,28.067 110.772,43.817 C108.669,59.565 95.729,69.731 81.246,69.729 C66.767,69.729 56.539,59.561 58.643,43.813 C60.748,28.06 73.69,17.901 88.17,17.903 L88.17,17.903 Z M83.04,56.311 C90.279,56.313 95.303,51.233 96.294,43.817 C97.285,36.398 93.619,31.317 86.379,31.317 C79.137,31.315 74.114,36.395 73.124,43.813 C72.134,51.229 75.799,56.311 83.04,56.311 L83.04,56.311 Z" id="Fill-2" fill="#000000"></path>
                <path d="M9.224,0.302 L23.705,0.245 L20.41,24.517 L20.603,24.517 C24.523,20.071 30.352,17.954 36.337,17.956 C49.66,17.956 56.085,30.53 54.254,44.245 C52.259,59.186 41.673,69.89 27.773,69.888 C21.208,69.888 16.165,65.634 14.422,62.3 L14.228,62.3 L13.36,68.966 L0.038,68.966 L9.224,0.302 L9.224,0.302 Z M26.572,56.31 C33.813,56.31 38.836,51.227 39.826,43.811 C40.819,36.392 37.152,31.311 29.91,31.311 C22.672,31.311 17.651,36.39 16.657,43.81 C15.667,51.226 19.334,56.308 26.572,56.31 L26.572,56.31 Z" id="Fill-1" fill="#000000"></path>
            </g>
        </g>
    </g>
</svg>
